FINK
CUT[IM ANFANG WARS AUF ERDEN]
REG[Europa, Mitteleuropa, Deutschland]
KEY[F0077  16  G 2/4]
MEL[34  5_1_1_23  4_.32_
    34  5_3_2123  1__0_
    34  5_1_1_23  4_.32_
    34  5_.32123  1__0__
    2_2_3_3_  4_.32_
    2_  3_.65_4#_  5__0_
    5_  +1_7_6_5_  5_.43_
    5_  6_5_4_3_  5_.43_
    5_  +1__7__  6__5__
    5_4_3_2_  2__1_ //] >>
FCT[Lob - Lied, religioes]
